svg/600/sharp/contract_edit-fill.svg

<svg xmlns="http://www.w3.org/2000/svg" width="48" height="48" viewBox="0 -960 960 960"><path d="M497.739-65.869H230.087q-52.007 0-88.113-36.188-36.105-36.187-36.105-88.313v-153.37h120.565v-550.956h628.262v313.13l-79.218 79.218v-312.565h-469.26v471.173h310.653L497.739-224.043v158.174Zm60 0v-134.87l271.479-270.479 133.87 133.87-270.479 271.48h-134.87ZM366.218-509.826v-71.304h349.26v71.304h-349.26Zm0-131.304v-70.74h349.26v70.74h-349.26Zm466.956 338.826 33.044-35.044-37-37-34.044 34.044 38 38Z"/></svg>

<svg xmlns="http://www.w3.org/2000/svg" width="48" height="48" viewBox="0 -960 960 960"><path d="M497.74-65.87H230.09q-52.01 0-88.12-36.19-36.1-36.18-36.1-88.31v-153.37h120.56V-894.7H854.7v313.13l-79.22 79.22v-312.56H306.22v471.17h310.65l-119.13 119.7v158.17Zm60 0v-134.87l271.48-270.48 133.87 133.87L692.61-65.87H557.74ZM366.22-509.83v-71.3h349.26v71.3H366.22Zm0-131.3v-70.74h349.26v70.74H366.22ZM833.17-302.3l33.05-35.05-37-37-34.05 34.05 38 38Z"/></svg>
